src/sponsor_logos/te_connectivity.svg

<svg xmlns="http://www.w3.org/2000/svg" xml:space="preserve" style="fill-rule:evenodd;clip-rule:evenodd;stroke-linejoin:round;stroke-miterlimit:2" viewBox="0 0 993 521"><path d="M15.988 15.623h992.024v520.755H15.988z" style="fill:#e98300;fill-rule:nonzero" transform="translate(-15.988 -15.623)"/><path d="M439.212 205.727h-199.38c-16.168 0-29.278-13.109-29.278-29.278 0-16.132 13.11-29.241 29.278-29.241h199.38c16.168 0 29.277 13.109 29.277 29.241 0 16.169-13.109 29.278-29.277 29.278m-9.843 117.207c0-16.204-13.109-29.313-29.277-29.313H200.675c-16.168 0-29.241 13.109-29.241 29.277 0 16.133 13.073 29.242 29.241 29.242h199.417c16.132 0 29.241-13.073 29.277-29.206m-316.696-73.49c0 7.774 3.059 15.26 8.574 20.739a29.23 29.23 0 0 0 20.739 8.611h199.38c16.168 0 29.277-13.109 29.277-29.242 0-16.168-13.109-29.277-29.277-29.277h-199.38c-7.765 0-15.223 3.059-20.703 8.539a29.28 29.28 0 0 0-8.61 20.63m412.994-100.616-12.434 45.895h61.676l-41.963 155.662h53.102l41.72-155.662h61.686l12.119-45.895zm191.301 0-53.984 201.557h161.951l11.814-44.599H726.883l9.906-36.655h98.133l11.139-40.668H747.72l9.663-35.18h109.516l12.092-44.392H717.04l-.072-.065zM482.831 425.495c4.426 0 8.646-1.8 11.732-4.994l-4.462-5.659a10.42 10.42 0 0 1-6.748 3.023c-1.719 0-3.374-.702-4.535-2.006a6 6 0 0 1-1.476-4.742 10.26 10.26 0 0 1 8.863-10.716c2.843-.108 5.479 1.476 6.748 4.04l6.748-4.715c-2.6-4.498-7.486-7.098-12.623-6.748-4.985-.171-9.835 1.692-13.388 5.174a18.38 18.38 0 0 0-5.516 13.244c-.144 3.869 1.404 7.594 4.22 10.266 2.807 2.672 6.64 3.968 10.473 3.617zm31.769 0c9.735-.216 17.608-8.053 17.815-17.824.216-3.932-1.296-7.729-4.139-10.473-2.852-2.708-6.721-4.076-10.653-3.689-9.735.208-17.571 8.08-17.823 17.815a13.6 13.6 0 0 0 4.255 10.374c2.844 2.672 6.712 4.004 10.617 3.581zm.387-7.486a6.44 6.44 0 0 1-4.885-1.863c-1.305-1.268-1.97-3.059-1.862-4.885-.072-5.138 3.76-9.492 8.853-10.122 1.826-.108 3.626.558 4.885 1.826a6.4 6.4 0 0 1 1.863 4.922c0 5.056-3.761 9.348-8.782 9.978zm18.625 6.748h8.79l4.634-17.752c.324-3.482 3.275-6.154 6.748-6.154a3.75 3.75 0 0 1 3.059.882 3.62 3.62 0 0 1 1.197 2.915c0 .918-.144 1.862-.388 2.78l-4.534 16.906h8.79l4.463-16.519c.558-1.898.881-3.869.98-5.866.036-2.394-.944-4.679-2.708-6.262a8.2 8.2 0 0 0-6.46-2.178c-3.167.18-6.154 1.512-8.367 3.797l.809-3.797h-8.754zm35.638 0h8.719l4.921-17.752a6.764 6.764 0 0 1 6.748-6.154c1.089-.171 2.213.144 3.023.882.846.738 1.26 1.79 1.224 2.915a12.5 12.5 0 0 1-.414 2.78l-4.499 16.906h8.674l4.471-16.519c.558-1.826.873-3.689 1.017-5.587a8.38 8.38 0 0 0-2.672-6.541 8.28 8.28 0 0 0-6.712-2.178c-3.203.18-6.19 1.512-8.44 3.797l.954-3.797h-8.79zm45.76-12.335h21.126a19.7 19.7 0 0 0 1.548-6.748 11.65 11.65 0 0 0-3.518-8.935c-2.421-2.312-5.696-3.509-9.034-3.23-10.122.108-18.237 8.332-18.273 18.418a12.87 12.87 0 0 0 3.968 10.05 12.85 12.85 0 0 0 10.266 3.446c4.282.108 8.466-1.341 11.804-4.04l-4.004-5.416c-1.934 1.511-4.282 2.393-6.748 2.429a6.104 6.104 0 0 1-7.063-6.118zm.81-5.417c1.089-3.905 4.607-6.604 8.647-6.748a4.34 4.34 0 0 1 3.581 1.053c.989.882 1.511 2.141 1.475 3.482a6.3 6.3 0 0 1 0 2.006h-13.496zm40.488 18.49a16.2 16.2 0 0 0 11.598-4.994l-4.463-5.659c-1.791 1.826-4.184 2.879-6.748 3.023-1.719 0-3.374-.702-4.535-2.006-1.124-1.296-1.682-3.024-1.439-4.742-.315-5.344 3.545-9.978 8.817-10.716a7.34 7.34 0 0 1 6.748 4.04l6.748-4.715c-2.564-4.498-7.45-7.098-12.614-6.748-9.978.072-18.067 8.161-18.139 18.139a13.4 13.4 0 0 0 3.833 10.122 13.33 13.33 0 0 0 10.05 4.04zm26.461 0c2.186.036 4.328-.424 6.325-1.269l2.043-7.45c-1.404.63-2.915.981-4.463 1.017-.666.279-1.44.18-1.97-.315-.558-.458-.774-1.196-.594-1.898a9 9 0 0 1 0-1.368l3.446-12.938h7.198l2.042-7.485h-7.027l2.105-7.909h-8.718l-2.069 7.63h-3.725l-2.043 7.485h3.725l-3.725 14.234c-.314 1.269-.521 2.564-.521 3.869a6.73 6.73 0 0 0 2.6 4.742c1.475 1.16 3.374 1.619 5.236 1.304zm13.01-.532h8.575l8.295-31.454h-8.79zm8.575-34.549h9.168l2.15-7.765h-9.177zm16.87 34.405h7.908l20.244-31.031h-9.384l-12.236 20.244-1.404-20.244h-8.502zm25.588 0h8.745l8.44-31.31h-8.683zm8.961-34.225h9.312l2.07-7.738h-8.818zm19.218 34.756a15.2 15.2 0 0 0 6.362-1.268l2.006-7.414c-1.404.639-2.951.954-4.499.99a1.86 1.86 0 0 1-1.655-.324 1.91 1.91 0 0 1-.738-1.476 11 11 0 0 1 0-1.367l3.446-12.966h7.243l2.006-7.485h-7.207l2.07-7.873h-8.683l-1.61 7.342h-3.725l-2.042 7.486h3.868l-3.724 13.99a15.5 15.5 0 0 0-.604 3.824 6.83 6.83 0 0 0 2.466 4.886 6.66 6.66 0 0 0 5.236 1.448zm17.959 8.647c5.524-.208 10.446-3.554 12.623-8.647l19.156-31.841h-9.457l-11.525 20.91-1.413-20.91h-8.925l3.797 31.032a3.76 3.76 0 0 1-3.374 1.898 6.2 6.2 0 0 1-3.374-1.233l-4.67 6.361a11.73 11.73 0 0 0 7.162 2.43" style="fill:#fff;fill-rule:nonzero" transform="translate(-15.988 -15.623)"/></svg>

<?xml version="1.0" encoding="UTF-8" standalone="no"?>
<!DOCTYPE svg PUBLIC "-//W3C//DTD SVG 1.1//EN" "http://www.w3.org/Graphics/SVG/1.1/DTD/svg11.dtd">
<svg width="100%" height="100%" viewBox="0 0 993 521" version="1.1" xmlns="http://www.w3.org/2000/svg" xmlns:xlink="http://www.w3.org/1999/xlink" xml:space="preserve" xmlns:serif="http://www.serif.com/" style="fill-rule:evenodd;clip-rule:evenodd;stroke-linejoin:round;stroke-miterlimit:2;">
    <g transform="matrix(1,0,0,1,-15.9879,-15.6226)">
        <rect id="path3601" x="15.988" y="15.623" width="992.024" height="520.755" style="fill:rgb(233,131,0);fill-rule:nonzero;"/>
        <path id="path3611" d="M439.212,205.727L239.832,205.727C223.664,205.727 210.554,192.618 210.554,176.449C210.554,160.317 223.664,147.208 239.832,147.208L439.212,147.208C455.38,147.208 468.489,160.317 468.489,176.449C468.489,192.618 455.38,205.727 439.212,205.727ZM429.369,322.934C429.369,306.73 416.26,293.621 400.092,293.621L200.675,293.621C184.507,293.621 171.434,306.73 171.434,322.898C171.434,339.031 184.507,352.14 200.675,352.14L400.092,352.14C416.224,352.14 429.333,339.067 429.369,322.934ZM112.673,249.444C112.673,257.218 115.732,264.704 121.247,270.183C126.736,275.699 134.185,278.794 141.986,278.794L341.366,278.794C357.534,278.794 370.643,265.685 370.643,249.552C370.643,233.384 357.534,220.275 341.366,220.275L141.986,220.275C134.221,220.275 126.763,223.334 121.283,228.814C115.804,234.266 112.709,241.68 112.673,249.444ZM525.667,148.828L513.233,194.723L574.909,194.723L532.946,350.385L586.048,350.385L627.768,194.723L689.454,194.723L701.573,148.828L525.667,148.828ZM716.968,148.828L662.984,350.385L824.935,350.385L836.749,305.786L726.883,305.786L736.789,269.131L834.922,269.131L846.061,228.463L747.72,228.463L757.383,193.283L866.899,193.283L878.991,148.891L717.04,148.891L716.968,148.826L716.968,148.828ZM482.831,425.495C487.257,425.495 491.477,423.695 494.563,420.501L490.101,414.842C488.31,416.632 485.89,417.721 483.353,417.865C481.634,417.865 479.979,417.163 478.818,415.859C477.657,414.563 477.135,412.835 477.342,411.117C477.064,405.773 480.896,401.139 486.205,400.401C489.048,400.293 491.684,401.877 492.953,404.441L499.701,399.726C497.101,395.228 492.215,392.628 487.078,392.978C482.093,392.807 477.243,394.67 473.69,398.152C470.145,401.625 468.138,406.411 468.174,411.396C468.03,415.265 469.578,418.99 472.394,421.662C475.201,424.334 479.034,425.63 482.867,425.279L482.831,425.495ZM514.6,425.495C524.335,425.279 532.208,417.442 532.415,407.671C532.631,403.739 531.119,399.942 528.276,397.198C525.424,394.49 521.555,393.122 517.623,393.509C507.888,393.717 500.052,401.589 499.8,411.324C499.664,415.229 501.212,419.026 504.055,421.698C506.899,424.37 510.767,425.702 514.672,425.279L514.6,425.495ZM514.987,418.009C513.197,418.108 511.398,417.442 510.102,416.146C508.797,414.878 508.132,413.087 508.24,411.261C508.168,406.123 512,401.769 517.093,401.139C518.919,401.031 520.719,401.697 521.978,402.965C523.283,404.261 523.949,406.06 523.841,407.887C523.841,412.943 520.08,417.235 515.059,417.865L514.987,418.009ZM533.612,424.757L542.402,424.757L547.036,407.005C547.36,403.523 550.311,400.851 553.784,400.851C554.882,400.68 556.006,400.995 556.843,401.733C557.653,402.471 558.112,403.523 558.04,404.648C558.04,405.566 557.896,406.51 557.652,407.428L553.118,424.334L561.908,424.334L566.371,407.815C566.929,405.917 567.252,403.946 567.351,401.949C567.387,399.555 566.407,397.27 564.643,395.687C562.925,394.067 560.567,393.266 558.183,393.509C555.016,393.689 552.029,395.021 549.816,397.306L550.625,393.509L541.871,393.509L533.612,424.757ZM569.25,424.757L577.969,424.757L582.89,407.005C583.205,403.523 586.12,400.851 589.638,400.851C590.727,400.68 591.851,400.995 592.661,401.733C593.507,402.471 593.921,403.523 593.885,404.648C593.856,405.566 593.714,406.51 593.471,407.428L588.972,424.334L597.646,424.334L602.117,407.815C602.675,405.989 602.99,404.126 603.134,402.228C603.242,399.762 602.288,397.378 600.462,395.687C598.671,394.004 596.206,393.194 593.75,393.509C590.547,393.689 587.56,395.021 585.31,397.306L586.264,393.509L577.474,393.509L569.25,424.757ZM615.01,412.422L636.136,412.422C637.045,410.271 637.576,407.986 637.684,405.674C637.855,402.327 636.559,399.061 634.166,396.739C631.745,394.427 628.47,393.23 625.132,393.509C615.01,393.617 606.895,401.841 606.859,411.927C606.643,415.688 608.092,419.376 610.827,421.977C613.571,424.577 617.332,425.846 621.093,425.423C625.375,425.531 629.559,424.082 632.897,421.383L628.893,415.967C626.959,417.478 624.611,418.36 622.145,418.396C620.391,418.674 618.564,418.18 617.188,416.983C615.82,415.796 615.046,414.068 615.082,412.278L615.01,412.422ZM615.82,407.005C616.909,403.1 620.427,400.401 624.467,400.257C625.762,400.05 627.067,400.437 628.048,401.31C629.037,402.192 629.559,403.451 629.523,404.792C629.631,405.458 629.631,406.123 629.523,406.798L616.027,406.798L615.82,407.006L615.82,407.005ZM656.308,425.495C660.699,425.459 664.883,423.668 667.906,420.501L663.443,414.842C661.652,416.668 659.259,417.721 656.695,417.865C654.976,417.865 653.321,417.163 652.16,415.859C651.036,414.563 650.478,412.835 650.721,411.117C650.406,405.773 654.266,401.139 659.538,400.401C662.39,400.329 665.026,401.913 666.286,404.441L673.034,399.726C670.47,395.228 665.584,392.628 660.42,392.978C650.442,393.05 642.353,401.139 642.281,411.117C642.074,414.878 643.478,418.567 646.114,421.239C648.75,423.947 652.403,425.423 656.164,425.279L656.308,425.495ZM682.769,425.495C684.955,425.531 687.097,425.071 689.094,424.226L691.137,416.776C689.733,417.406 688.222,417.757 686.674,417.793C686.008,418.072 685.234,417.973 684.704,417.478C684.146,417.02 683.93,416.282 684.11,415.58C684.074,415.121 684.074,414.671 684.11,414.212L687.556,401.274L694.754,401.274L696.796,393.789L689.769,393.789L691.874,385.88L683.156,385.88L681.087,393.51L677.362,393.51L675.319,400.995L679.044,400.995L675.319,415.229C675.005,416.498 674.798,417.793 674.798,419.098C674.969,420.96 675.886,422.679 677.398,423.84C678.873,425 680.772,425.459 682.634,425.144L682.77,425.495L682.769,425.495ZM695.779,424.963L704.354,424.963L712.649,393.509L703.859,393.509L695.779,424.963ZM704.354,390.414L713.522,390.414L715.672,382.649L706.495,382.649L704.354,390.414ZM721.224,424.819L729.132,424.819L749.376,393.788L739.992,393.788L727.756,414.032L726.352,393.788L717.85,393.788L721.224,424.819ZM746.812,424.819L755.557,424.819L763.997,393.509L755.314,393.509L746.812,424.819ZM755.773,390.594L765.085,390.594L767.155,382.856L758.337,382.856L755.773,390.594ZM774.991,425.35C777.178,425.386 779.355,424.963 781.353,424.082L783.359,416.668C781.955,417.307 780.408,417.622 778.86,417.658C778.302,417.828 777.664,417.694 777.205,417.334C776.755,416.983 776.467,416.425 776.467,415.858C776.438,415.408 776.438,414.949 776.467,414.491L779.913,401.525L787.156,401.525L789.162,394.04L781.955,394.04L784.025,386.167L775.342,386.167L773.732,393.509L770.007,393.509L767.965,400.995L771.833,400.995L768.109,414.985C767.757,416.209 767.541,417.514 767.505,418.809C767.613,420.708 768.495,422.471 769.971,423.695C771.41,424.891 773.309,425.422 775.207,425.143L774.991,425.351L774.991,425.35ZM792.95,433.997C798.474,433.789 803.396,430.443 805.573,425.35L824.729,393.509L815.272,393.509L803.747,414.419L802.334,393.509L793.409,393.509L797.206,424.541C796.504,425.773 795.199,426.475 793.832,426.439C792.599,426.367 791.448,425.945 790.458,425.206L785.788,431.567C787.858,433.151 790.35,433.997 792.95,433.997Z" style="fill:white;fill-rule:nonzero;"/>
    </g>
</svg>
